svgs/duotone/laptop-mobile.svg

<svg xmlns="http://www.w3.org/2000/svg" viewBox="0 0 640 512"><!--! Font Awesome Pro 6.6.0 by @fontawesome - https://fontawesome.com License - https://fontawesome.com/license (Commercial License) Copyright 2024 Fonticons, Inc. --><defs><style>.fa-secondary{opacity:.4}</style></defs><path class="fa-secondary" d="M0 307.2C0 349.6 34.4 384 76.8 384L352 384l0-96-224 0 0-224 320 0 0 32 64 0 0-32c0-35.3-28.7-64-64-64L128 0C92.7 0 64 28.7 64 64l0 224-44.8 0C8.6 288 0 296.6 0 307.2zM448 192l0 256 128 0 0-256-128 0z"/><path class="fa-primary" d="M448 192l128 0 0 256-128 0 0-256zm-16-64c-26.5 0-48 21.5-48 48l0 288c0 26.5 21.5 48 48 48l160 0c26.5 0 48-21.5 48-48l0-288c0-26.5-21.5-48-48-48l-160 0z"/></svg>

<svg xmlns="http://www.w3.org/2000/svg" viewBox="0 0 640 512"><!--! Font Awesome Pro 6.4.0 by @fontawesome - https://fontawesome.com License - https://fontawesome.com/license (Commercial License) Copyright 2023 Fonticons, Inc. --><defs><style>.fa-secondary{opacity:.4}</style></defs><path class="fa-primary" d="M448 192H576V448H448V192zm-16-64c-26.5 0-48 21.5-48 48V464c0 26.5 21.5 48 48 48H592c26.5 0 48-21.5 48-48V176c0-26.5-21.5-48-48-48H432z"/><path class="fa-secondary" d="M128 0C92.7 0 64 28.7 64 64V288H19.2C8.6 288 0 296.6 0 307.2C0 349.6 34.4 384 76.8 384H352V288H128V64H448V96h64V64c0-35.3-28.7-64-64-64H128zM576 448V192H448V448H576z"/></svg>
